X: 21584
T: The DEUKS DANG O'ER MY DADDIE
Q: "With spirit."
%R: jig
B: W. Hamilton "Universal Tune-Book" Vol. 2 Glasgow 1846 p.158 #4 (And p.159 #1)
S: http://s3-eu-west-1.amazonaws.com/itma.dl.printmaterial/book_pdfs/hamiltonvol2web.pdf
Z: 2016 John Chambers <jc:trillian.mit.edu>
M: 6/8
L: 1/8
K: D
% - - - - - - - - - - - - - - - - - - - - - - - - -
f/e/ |\
d2D FED | EFE cBc | d2A GFE | FDD Dfe |\
d2D FED | EFE cBc | d2A GFE | FDD D2 :|
|: c |\
dcd Bcd | efd cBA | dcd efg | fdd def |\
gfg Bcd | efd cBA | d2A GFE | FDD D2 :|
% - - - - - - - - - - - - - - - - - - - - - - - - -

% (Continued from previous page)

%%sep 1 1 500
%%sep 1 1 500

